src/status/24/microphone-sensitivity-muted-70-symbolic.svg

<?xml version="1.0" encoding="UTF-8" standalone="no"?>
<svg
   xmlns:dc="http://purl.org/dc/elements/1.1/"
   xmlns:cc="http://creativecommons.org/ns#"
   xmlns:rdf="http://www.w3.org/1999/02/22-rdf-syntax-ns#"
   xmlns:svg="http://www.w3.org/2000/svg"
   xmlns="http://www.w3.org/2000/svg"
   id="svg6"
   version="1.1"
   width="24"
   height="24">
  <metadata
     id="metadata12">
    <rdf:RDF>
      <cc:Work
         rdf:about="">
        <dc:format>image/svg+xml</dc:format>
        <dc:type
           rdf:resource="http://purl.org/dc/dcmitype/StillImage" />
        <dc:title></dc:title>
      </cc:Work>
    </rdf:RDF>
  </metadata>
  <defs
     id="defs10" />
  <path
     id="path2"
     d="M 6.3535156 4.7363281 L 5.4121094 5.6777344 L 15.3125 15.578125 L 16.253906 14.636719 L 15.810547 14.193359 A 3.981 3.981 0 0 0 16 13 L 16 11 L 17 11 L 17 10 L 15 10 L 15 13 C 15 13.117959 14.97111 13.22611 14.957031 13.339844 L 14 12.382812 L 14 7 C 14 5.892 13.108 5 12 5 C 10.892 5 10 5.892 10 7 L 10 8.3828125 L 6.3535156 4.7363281 z M 7 10 L 7 11 L 8 11 L 8 13 A 3.981 3.981 0 0 0 11 16.861328 L 11 19 L 10 19 L 10 20 L 14 20 L 14 19 L 13 19 L 13 16.861328 A 3.981 3.981 0 0 0 14.503906 16.107422 L 13.792969 15.396484 C 13.29241 15.770942 12.675981 16 12 16 C 10.338 16 9 14.662 9 13 L 9 10.603516 L 8.3964844 10 L 7 10 z M 10 11.603516 L 10 13 C 10 14.108 10.892 15 12 15 C 12.398899 15 12.766762 14.881325 13.078125 14.681641 L 10 11.603516 z "
     style="color:#bebebe;overflow:visible;isolation:auto;mix-blend-mode:normal;fill:#363636;marker:none" />
</svg>

<svg xmlns="http://www.w3.org/2000/svg" width="24" height="24">
    <path d="m6.354 4.736-.942.942 9.9 9.9.942-.941-.443-.444A3.981 3.981 0 0 0 16 13v-2h1v-1h-2v3c0 .118-.029.226-.043.34L14 12.383V7c0-1.108-.892-2-2-2s-2 .892-2 2v1.383L6.354 4.736zM7 10v1h1v2a3.981 3.981 0 0 0 3 3.861V19h-1v1h4v-1h-1v-2.139a3.981 3.981 0 0 0 1.504-.754l-.711-.71A2.993 2.993 0 0 1 9 13v-2.397L8.396 10H7zm3 1.604V13a1.996 1.996 0 0 0 3.078 1.682L10 11.604z" style="color:#bebebe;overflow:visible;isolation:auto;mix-blend-mode:normal;fill:#050505;opacity:.7;marker:none"/>
</svg>
